X:5890
T:Gan Ainm
R:Jig
S:
H:
N:
D:
Z:Adrian Scahill
M:6/8
L:1/8
K:D
A3 AFA|dfe efd|B3 GAB|AFE EFG|\
A3 AFA|dfe efd|B3 GAB|1 AFE D2B:|2 AFE D2B,||\
A,B,D DEF|EFD DFA|d3 edB|AFE EDB,|\
A,B,D DEF|EFD DFA|d3 edB|AFE D2B,:||
